X:9
T:Green Grow the Rushes O
R:highland
Z:id:hn-hf-9
M:C|
K:G
G2GA BG~G2|ABcd eAAB|c2ec B2dB|1 AcBA GEDE:|2 AcBA GED2||
|:g2ga ged2|eaab agef|g2ga gedB|1 AcBA GED2:|2 AcBA GEDE||

